X:45
T:Long Grass
S:Kathryn Tickell
D:Kathryn Tickell: Air Dancing
Z:robin.beech@mcgill.ca
R:slipjig
M:9/8
L:1/8
K:Fmix
A3 AGF CFA | B3 B2A Bcd | f3- fcA FAc | edc B2c AGF |
A3 AGF CFA | B3 B2A Bcd | f3- fcA FAc | edc B2c AGF ::
=e2c G2c efg | f2G dec dcB | c2F G_AF c2F | G2e dBG c3 |
c2G =e2c efg | f2G dec dcB | c2A F2C FGA | B3 c6 :|
